release/img/avatar_logo.svg

<svg width="93" height="93" viewBox="0 0 93 93" fill="none" xmlns="http://www.w3.org/2000/svg">
<rect width="93" height="93" fill="white"/>
<path d="M21.437 60.8944C17.8258 58.3471 15.8988 54.9205 15.6813 51.1754C15.398 46.2527 18.2708 40.9408 24.3755 36.4124C30.4752 31.8839 38.6434 28.998 46.9179 27.9923C53.6396 27.1735 65.7883 28.0276 71.2557 31.3684C64.9336 26.1324 49.7249 25.5208 43.6607 26.2537C35.2699 27.2746 26.9954 30.1958 20.8199 34.7799C14.6444 39.364 11.7312 44.7466 12.0195 49.74C12.242 53.5508 16.8446 59.5955 21.437 60.8944Z" fill="#F9F8F8"/>
<path d="M25 25.5C24.1716 25.5 23.5 26.1716 23.5 27V30.9C23.5 31.7284 24.1716 32.4 25 32.4H27.9513L34.2356 45.6493L31.9789 49.7448C31.5394 50.5183 31.3 51.4148 31.3 52.35C31.3 54.4951 32.5629 56.3556 34.383 57.2257C32.5674 58.098 31.3195 59.9618 31.3195 62.1C31.3195 65.0636 33.7168 67.5 36.7 67.5C39.6734 67.5 42.1 65.0734 42.1 62.1C42.1 60.3193 41.2297 58.7347 39.8929 57.75H53.0136C51.6809 58.7364 50.8195 60.3235 50.8195 62.1C50.8195 65.0636 53.2168 67.5 56.2 67.5C59.1734 67.5 61.6 65.0734 61.6 62.1C61.6 60.3193 60.7297 58.7347 59.3929 57.75H60.1C60.9284 57.75 61.6 57.0784 61.6 56.25V52.35C61.6 51.5216 60.9284 50.85 60.1 50.85H39.2333L39.7302 49.95H53.3725C55.3918 49.95 57.178 48.844 58.1 47.1632C58.1001 47.163 58.1001 47.1629 58.1002 47.1628L65.0749 34.5186C65.3738 33.9903 65.5 33.3995 65.5 32.85C65.5 30.9491 63.9509 29.4 62.05 29.4H34.1619L32.734 26.362C32.4868 25.8359 31.9578 25.5 31.3765 25.5H25Z" fill="#F9B300" stroke="white" stroke-width="3" stroke-linejoin="round"/>
<path d="M81.937 44.1198C81.6639 39.3588 78.3359 34.8202 72.0187 31.4542C72.6712 32.2224 78.0476 35.8816 78.2752 42.6895C78.4421 47.6172 75.6856 52.924 69.586 57.4525C63.4863 61.9809 55.3434 65.1498 47.0436 65.8726C35.5777 66.8682 28.3653 65.1852 27.0352 65.0538C34.1059 67.778 42.3753 68.5715 50.3058 67.6061C58.6966 66.5852 66.9711 63.6639 73.1466 59.0849C77.5216 55.8352 80.2578 52.1861 81.3756 48.5623C81.8358 47.0613 82.023 45.5754 81.937 44.1198Z" fill="#E8E8E8"/>
</svg>

<svg width="93" height="93" fill="none" xmlns="http://www.w3.org/2000/svg"><path fill="#fff" d="M0 0h93v93H0z"/><path d="M21.437 60.894c-3.611-2.547-5.538-5.974-5.756-9.719-.283-4.922 2.59-10.234 8.694-14.763 6.1-4.528 14.268-7.414 22.543-8.42 6.722-.819 18.87.036 24.338 3.376-6.322-5.236-21.531-5.847-27.595-5.114-8.391 1.02-16.666 3.942-22.841 8.526-6.176 4.584-9.089 9.967-8.8 14.96.222 3.81 4.825 9.855 9.417 11.154z" fill="#F9F8F8"/><path d="M25 25.5a1.5 1.5 0 00-1.5 1.5v3.9a1.5 1.5 0 001.5 1.5h2.951l6.285 13.25-2.257 4.095a5.27 5.27 0 00-.679 2.605 5.413 5.413 0 003.083 4.876 5.41 5.41 0 00-3.064 4.874c0 2.964 2.398 5.4 5.381 5.4 2.973 0 5.4-2.427 5.4-5.4a5.4 5.4 0 00-2.207-4.35h13.12a5.407 5.407 0 00-2.194 4.35c0 2.964 2.398 5.4 5.381 5.4 2.973 0 5.4-2.427 5.4-5.4a5.4 5.4 0 00-2.207-4.35h.707a1.5 1.5 0 001.5-1.5v-3.9a1.5 1.5 0 00-1.5-1.5H39.233l.497-.9h13.643a5.382 5.382 0 004.727-2.787s0 0 0 0l6.975-12.644c.299-.529.425-1.12.425-1.669 0-1.9-1.55-3.45-3.45-3.45H34.162l-1.428-3.038a1.5 1.5 0 00-1.358-.862H25z" fill="#F9B300" stroke="#fff" stroke-width="3" stroke-linejoin="round"/><path d="M81.937 44.12c-.273-4.761-3.601-9.3-9.918-12.666.652.768 6.029 4.428 6.256 11.236.167 4.927-2.59 10.234-8.689 14.763-6.1 4.528-14.243 7.697-22.542 8.42-11.466.995-18.679-.688-20.009-.82 7.07 2.725 15.34 3.519 23.27 2.553 8.392-1.02 16.666-3.942 22.842-8.521 4.375-3.25 7.11-6.899 8.229-10.523.46-1.5.647-2.987.561-4.442z" fill="#E8E8E8"/></svg>
